app/svg/icon-cross.svg

<svg width="24" height="24" viewBox="0 0 24 24" fill="none" xmlns="http://www.w3.org/2000/svg">
<path d="M16.3201 9.13068L13.2255 12.2253L16.2842 15.2839L15.3058 16.2623L12.2471 13.2037L9.1308 16.32L8.04378 15.233L11.1601 12.1166L8.11647 9.07299L9.09485 8.0946L12.1385 11.1383L15.2331 8.04366L16.3201 9.13068Z" fill="black"/>
</svg>

<svg width="24" height="24" fill="none" xmlns="http://www.w3.org/2000/svg"><path d="M16.32 9.13l-3.1 3.1 3.06 3.05-.97.98-3.06-3.06-3.12 3.12-1.09-1.09 3.12-3.11-3.04-3.05.97-.98 3.05 3.05 3.1-3.1 1.08 1.1z" fill="#000"></path></svg>
